src/lib/packages/icons/src/assets/line/comment-text-times.svg

<svg width="24" height="24" viewBox="0 0 24 24" fill="none" xmlns="http://www.w3.org/2000/svg">
<path d="M13.7471 19.896C13.7841 20.309 13.4789 20.673 13.0669 20.71C11.5609 20.846 10.002 20.6889 8.60596 20.2729C7.24196 21.4599 5.36393 21.75 3.85693 21.75C3.71193 21.75 3.57111 21.748 3.43311 21.743C2.93311 21.731 2.49497 21.411 2.32397 20.928C2.15197 20.442 2.29408 19.9131 2.68408 19.5811C3.61608 18.8291 3.98892 17.997 4.13892 17.426C2.90192 15.947 2.24902 14.08 2.24902 12.001C2.24902 6.84798 6.25902 3.25 11.999 3.25C17.739 3.25 21.749 6.84898 21.749 12.001C21.749 12.415 21.413 12.751 20.999 12.751C20.585 12.751 20.249 12.415 20.249 12.001C20.249 7.73098 16.856 4.75 11.999 4.75C7.14202 4.75 3.74902 7.73198 3.74902 12.001C3.74902 13.837 4.354 15.463 5.5 16.703C5.655 16.871 5.72594 17.101 5.68994 17.328C5.52194 18.399 4.99388 19.412 4.18188 20.243C5.34188 20.201 6.90206 19.934 7.86206 18.91C8.06306 18.694 8.37505 18.617 8.65405 18.714C9.96605 19.168 11.4729 19.3469 12.9309 19.2159C13.3279 19.1749 13.7091 19.483 13.7471 19.896ZM21.53 15.47C21.237 15.177 20.762 15.177 20.469 15.47L18.999 16.9399L17.5291 15.47C17.2361 15.177 16.761 15.177 16.468 15.47C16.175 15.763 16.175 16.238 16.468 16.531L17.938 18.001L16.468 19.4709C16.175 19.7639 16.175 20.239 16.468 20.532C16.614 20.678 16.806 20.752 16.998 20.752C17.19 20.752 17.3821 20.679 17.5281 20.532L18.998 19.062L20.468 20.532C20.614 20.678 20.806 20.752 20.998 20.752C21.19 20.752 21.3821 20.679 21.5281 20.532C21.8211 20.239 21.8211 19.7639 21.5281 19.4709L20.0581 18.001L21.5281 16.531C21.8231 16.237 21.823 15.763 21.53 15.47ZM16.75 10C16.75 9.586 16.414 9.25 16 9.25H8C7.586 9.25 7.25 9.586 7.25 10C7.25 10.414 7.586 10.75 8 10.75H16C16.414 10.75 16.75 10.414 16.75 10ZM13 13.25H8C7.586 13.25 7.25 13.586 7.25 14C7.25 14.414 7.586 14.75 8 14.75H13C13.414 14.75 13.75 14.414 13.75 14C13.75 13.586 13.414 13.25 13 13.25Z" fill="currentColor"/>
</svg>

<svg xmlns="http://www.w3.org/2000/svg" width="24" height="24" fill="none"><path fill="currentColor" d="M13.747 19.896a.75.75 0 0 1-.68.814 12.061 12.061 0 0 1-4.461-.437c-1.364 1.187-3.242 1.477-4.75 1.477a11.7 11.7 0 0 1-.423-.007 1.207 1.207 0 0 1-1.109-.815 1.221 1.221 0 0 1 .36-1.347c.932-.752 1.305-1.584 1.455-2.155-1.237-1.479-1.89-3.346-1.89-5.425 0-5.153 4.01-8.751 9.75-8.751s9.75 3.599 9.75 8.751a.75.75 0 0 1-1.5 0c0-4.27-3.393-7.251-8.25-7.251s-8.25 2.982-8.25 7.251c0 1.836.605 3.462 1.751 4.702a.749.749 0 0 1 .19.625c-.168 1.071-.696 2.084-1.508 2.915 1.16-.042 2.72-.309 3.68-1.333a.748.748 0 0 1 .792-.196c1.312.454 2.819.633 4.277.502a.759.759 0 0 1 .816.68Zm7.783-4.426a.75.75 0 0 0-1.061 0l-1.47 1.47-1.47-1.47a.75.75 0 0 0-1.061 1.061l1.47 1.47-1.47 1.47a.75.75 0 0 0 1.06 1.061l1.47-1.47 1.47 1.47a.748.748 0 0 0 1.06 0 .75.75 0 0 0 0-1.061L20.058 18l1.47-1.47a.748.748 0 0 0 .002-1.061ZM16.75 10a.75.75 0 0 0-.75-.75H8a.75.75 0 0 0 0 1.5h8a.75.75 0 0 0 .75-.75ZM13 13.25H8a.75.75 0 0 0 0 1.5h5a.75.75 0 0 0 0-1.5Z"/></svg>
